src/assets/filled/Backward15Seconds.svg

<svg width="24" height="24" viewBox="0 0 24 24"  xmlns="http://www.w3.org/2000/svg">
<path d="M14.4299 16.9201H12.1399C11.7299 16.9201 11.3899 16.5801 11.3899 16.1701C11.3899 15.7601 11.7299 15.4201 12.1399 15.4201H14.4299C14.8599 15.4201 15.2099 15.0701 15.2099 14.6401C15.2099 14.2101 14.8599 13.8601 14.4299 13.8601H12.1399C11.8999 13.8601 11.6699 13.7401 11.5299 13.5501C11.3899 13.3601 11.3499 13.1001 11.4299 12.8701L12.1899 10.5801C12.2899 10.2701 12.5799 10.0701 12.8999 10.0701H15.9599C16.3699 10.0701 16.7099 10.4101 16.7099 10.8201C16.7099 11.2301 16.3699 11.5701 15.9599 11.5701H13.4399L13.1799 12.3601H14.4299C15.6899 12.3601 16.7099 13.3801 16.7099 14.6401C16.7099 15.9001 15.6799 16.9201 14.4299 16.9201Z" />
<path d="M9.53992 16.9201C9.12992 16.9201 8.78992 16.5801 8.78992 16.1701V12.7801L8.59992 13.0001C8.31992 13.3101 7.84992 13.3301 7.53992 13.0601C7.23992 12.7801 7.20992 12.3101 7.48992 12.0001L8.98992 10.3301C9.19992 10.1001 9.52992 10.0201 9.81992 10.1301C10.1099 10.2401 10.2999 10.5201 10.2999 10.8301V16.1801C10.2899 16.5901 9.95992 16.9201 9.53992 16.9201Z" />
<path d="M12.0001 3.47994C11.9201 3.47994 11.8401 3.48994 11.7601 3.48994L12.5801 2.46994C12.8401 2.14994 12.7901 1.66994 12.4601 1.41994C12.1301 1.16994 11.6701 1.20994 11.4101 1.53994L9.4401 3.99994C9.4301 4.00994 9.4301 4.01994 9.4201 4.03994C9.3901 4.07994 9.3701 4.12994 9.3501 4.16994C9.3301 4.21994 9.3101 4.25994 9.3001 4.29994C9.2901 4.34994 9.2901 4.38994 9.2901 4.43994C9.2901 4.48994 9.2901 4.53994 9.2901 4.58994C9.2901 4.60994 9.2901 4.61994 9.2901 4.63994C9.3001 4.66994 9.3201 4.68994 9.3301 4.71994C9.3501 4.76994 9.3701 4.80994 9.3901 4.85994C9.4201 4.89994 9.4501 4.93994 9.4901 4.96994C9.5101 4.99994 9.5201 5.02994 9.5501 5.04994C9.5701 5.05994 9.5801 5.06994 9.6001 5.07994C9.6201 5.09994 9.6501 5.10994 9.6801 5.11994C9.7301 5.14994 9.7901 5.16994 9.8401 5.17994C9.8801 5.19994 9.9101 5.19994 9.9401 5.19994C9.9701 5.19994 9.9901 5.20994 10.0201 5.20994C10.0501 5.20994 10.0701 5.19994 10.0901 5.18994C10.1201 5.18994 10.1501 5.19994 10.1801 5.18994C10.8201 5.03994 11.4201 4.96994 11.9901 4.96994C16.4801 4.96994 20.1301 8.61994 20.1301 13.1099C20.1301 17.5999 16.4801 21.2499 11.9901 21.2499C7.5001 21.2499 3.8501 17.5999 3.8501 13.1099C3.8501 11.3699 4.4201 9.68994 5.5001 8.24994C5.7501 7.91994 5.6801 7.44994 5.3501 7.19994C5.0201 6.94994 4.5501 7.01994 4.3001 7.34994C3.0201 9.04994 2.3501 11.0399 2.3501 13.1099C2.3501 18.4199 6.6701 22.7499 11.9901 22.7499C17.3101 22.7499 21.6301 18.4299 21.6301 13.1099C21.6301 7.78994 17.3101 3.47994 12.0001 3.47994Z" />
</svg>

<?xml version="1.0" encoding="UTF-8"?>
<svg width="24" height="24" viewBox="0 0 24 24" xmlns="http://www.w3.org/2000/svg">
 <path d="m14.43 16.92h-2.29c-0.41 0-0.75-0.34-0.75-0.75s0.34-0.75 0.75-0.75h2.29c0.43 0 0.78-0.35 0.78-0.78s-0.35-0.78-0.78-0.78h-2.29c-0.24 0-0.47-0.12-0.61-0.31s-0.18-0.45-0.1-0.68l0.76-2.29c0.1-0.31 0.39-0.51 0.71-0.51h3.06c0.41 0 0.75 0.34 0.75 0.75s-0.34 0.75-0.75 0.75h-2.52l-0.26 0.79h1.25c1.26 0 2.28 1.02 2.28 2.28s-1.03 2.28-2.28 2.28z"/>
 <path d="m9.5399 16.92c-0.41 0-0.75-0.34-0.75-0.75v-3.39l-0.19 0.22c-0.28 0.31-0.75 0.33-1.06 0.06-0.3-0.28-0.33-0.75-0.05-1.06l1.5-1.67c0.21-0.23 0.54-0.31 0.83-0.2 0.28998 0.11 0.47998 0.39 0.47998 0.7v5.35c-0.01 0.41-0.33998 0.74-0.75998 0.74z"/>
 <path d="m12 3.4799c-0.08 0-0.16 0.01-0.24 0.01l0.82-1.02c0.26-0.32 0.21-0.8-0.12-1.05s-0.79-0.21-1.05 0.12l-1.97 2.46c-0.01 0.01-0.01 0.02-0.02 0.04-0.03 0.04-0.05 0.09-0.07 0.13-0.02 0.05-0.04 0.09-0.05 0.13-0.01 0.05-0.01 0.09-0.01 0.14v0.15 0.05c0.01 0.03 0.03 0.05 0.04 0.08 0.02 0.05 0.04 0.09 0.06 0.14 0.03 0.04 0.06 0.08 0.1 0.11 0.02 0.03 0.03 0.06 0.06 0.08 0.02 0.01 0.03 0.02 0.05 0.03 0.02 0.02 0.05 0.03 0.08 0.04 0.05 0.03 0.11 0.05 0.16 0.06 0.04 0.02 0.07 0.02 0.1 0.02s0.05 0.01 0.08 0.01 0.05-0.01 0.07-0.02c0.03 0 0.06 0.01 0.09 0 0.64-0.15 1.24-0.22 1.81-0.22 4.49 0 8.14 3.65 8.14 8.14 0 4.49-3.65 8.14-8.14 8.14s-8.14-3.65-8.14-8.14c0-1.74 0.57-3.42 1.65-4.86 0.25-0.33 0.18-0.8-0.15-1.05s-0.8-0.18-1.05 0.15c-1.28 1.7-1.95 3.69-1.95 5.76 0 5.31 4.32 9.64 9.64 9.64s9.64-4.32 9.64-9.64c0-5.32-4.32-9.63-9.63-9.63z"/>
</svg>
